Origami/32x32/apps/groove.svg

<svg width="32" height="32" version="1" xmlns="http://www.w3.org/2000/svg">
 <rect transform="matrix(0,-1,-1,0,0,0)" x="-31" y="-31" width="29" height="29" rx="14.5" ry="14.5" style="opacity:.2"/>
 <rect transform="matrix(0,-1,-1,0,0,0)" x="-30" y="-31" width="29" height="29" rx="14.5" ry="14.5" style="fill:#00BCF2"/>
 <g transform="translate(0 .9999998)" style="opacity:.2">
  <path d="M 16.582031,12.001953 A 3.5000875,3.4997373 29.999268 0 0 13.46875,13.75 3.5000875,3.4997373 29.999268 0 0 14.75,18.53125 3.5000875,3.4997373 29.999268 0 0 19.53125,17.25 3.5000875,3.4997373 29.999268 0 0 18.25,12.46875 3.5000875,3.4997373 29.999268 0 0 16.582031,12.001953 Z m -0.152343,2 A 1.5000374,1.4998873 29.999268 0 1 17.25,14.201172 1.5000374,1.4998873 29.999268 0 1 17.798828,16.25 1.5000374,1.4998873 29.999268 0 1 15.75,16.798828 1.5000374,1.4998873 29.999268 0 1 15.201172,14.75 1.5000374,1.4998873 29.999268 0 1 16.429688,14.001953 Z"/>
  <g transform="matrix(.70710678 -.70710678 .70710678 .70710678 -6.127417 16.207107)">
   <path d="m21 14 5.99991 2.6e-4l-1.499847 2.99974-4.499933-1.95e-4z"/>
   <path d="M 16.5,5 A 10.5,10.5 0 0 0 6,15.5 10.5,10.5 0 0 0 16.5,26 10.5,10.5 0 0 0 27,15.5 10.5,10.5 0 0 0 26.878906,14 l -3.039062,0 A 7.4999999,7.4999999 0 0 1 24,15.5 7.4999999,7.4999999 0 0 1 16.5,23 7.4999999,7.4999999 0 0 1 9,15.5 7.4999999,7.4999999 0 0 1 16.5,8 a 7.4999999,7.4999999 0 0 1 5.990234,3 l 3.482422,0 A 10.5,10.5 0 0 0 16.5,5 Z"/>
  </g>
 </g>
 <path d="m16.582031 12.001953a3.5000875 3.4997373 29.999268 0 0 -3.113281 1.748047 3.5000875 3.4997373 29.999268 0 0 1.28125 4.78125 3.5000875 3.4997373 29.999268 0 0 4.78125 -1.28125 3.5000875 3.4997373 29.999268 0 0 -1.28125 -4.78125 3.5000875 3.4997373 29.999268 0 0 -1.667969 -0.466797zm-0.152343 2a1.5000374 1.4998873 29.999268 0 1 0.820312 0.199219 1.5000374 1.4998873 29.999268 0 1 0.548828 2.048828 1.5000374 1.4998873 29.999268 0 1 -2.048828 0.548828 1.5000374 1.4998873 29.999268 0 1 -0.548828 -2.048828 1.5000374 1.4998873 29.999268 0 1 1.228516 -0.748047z" style="fill:#cae8ff"/>
 <g transform="matrix(.70710678 -.70710678 .70710678 .70710678 -6.127417 16.207107)">
  <path d="m21 14 5.99991 2.6e-4l-1.499847 2.99974-4.499933-1.95e-4z" style="fill:#71c1ff"/>
  <path d="M 16.5,5 A 10.5,10.5 0 0 0 6,15.5 10.5,10.5 0 0 0 16.5,26 10.5,10.5 0 0 0 27,15.5 10.5,10.5 0 0 0 26.878906,14 l -3.039062,0 A 7.4999999,7.4999999 0 0 1 24,15.5 7.4999999,7.4999999 0 0 1 16.5,23 7.4999999,7.4999999 0 0 1 9,15.5 7.4999999,7.4999999 0 0 1 16.5,8 a 7.4999999,7.4999999 0 0 1 5.990234,3 l 3.482422,0 A 10.5,10.5 0 0 0 16.5,5 Z" style="fill:#71c1ff"/>
 </g>
 <path d="M 16.5 1 C 8.467 1 2 7.467 2 15.5 C 2 15.668901 2.0197182 15.832529 2.0253906 16 C 2.2895 8.2024902 8.6359007 2 16.5 2 C 24.364099 2 30.7105 8.2024902 30.974609 16 C 30.980282 15.832529 31 15.668901 31 15.5 C 31 7.467 24.533 1 16.5 1 z" style="fill:#ffffff;opacity:.2"/>
</svg>

<svg xmlns="http://www.w3.org/2000/svg" width="32" height="32" version="1">
 <rect style="opacity:0.2" width="29" height="29" x="-31" y="-31" rx="14.5" ry="14.5" transform="matrix(0,-1,-1,0,0,0)"/>
 <rect style="fill:#00BCF2" width="29" height="29" x="-30" y="-31" rx="14.5" ry="14.5" transform="matrix(0,-1,-1,0,0,0)"/>
 <g style="opacity:0.2" transform="translate(0,0.9999998)">
  <path d="M 16.582031,12.001953 A 3.5000875,3.4997373 29.999268 0 0 13.46875,13.75 3.5000875,3.4997373 29.999268 0 0 14.75,18.53125 3.5000875,3.4997373 29.999268 0 0 19.53125,17.25 3.5000875,3.4997373 29.999268 0 0 18.25,12.46875 3.5000875,3.4997373 29.999268 0 0 16.582031,12.001953 Z m -0.152343,2 A 1.5000374,1.4998873 29.999268 0 1 17.25,14.201172 1.5000374,1.4998873 29.999268 0 1 17.798828,16.25 1.5000374,1.4998873 29.999268 0 1 15.75,16.798828 1.5000374,1.4998873 29.999268 0 1 15.201172,14.75 1.5000374,1.4998873 29.999268 0 1 16.429688,14.001953 Z"/>
  <g transform="matrix(0.70710678,-0.70710678,0.70710678,0.70710678,-6.127417,16.207107)">
   <path d="m 21,14 5.99991,2.6e-4 L 25.500063,17 21.00013,16.999805 Z"/>
   <path d="M 16.5,5 A 10.5,10.5 0 0 0 6,15.5 10.5,10.5 0 0 0 16.5,26 10.5,10.5 0 0 0 27,15.5 10.5,10.5 0 0 0 26.878906,14 l -3.039062,0 A 7.4999999,7.4999999 0 0 1 24,15.5 7.4999999,7.4999999 0 0 1 16.5,23 7.4999999,7.4999999 0 0 1 9,15.5 7.4999999,7.4999999 0 0 1 16.5,8 a 7.4999999,7.4999999 0 0 1 5.990234,3 l 3.482422,0 A 10.5,10.5 0 0 0 16.5,5 Z"/>
  </g>
 </g>
 <g>
  <path style="fill:#cae8ff" d="M 16.582031 12.001953 A 3.5000875 3.4997373 29.999268 0 0 13.46875 13.75 A 3.5000875 3.4997373 29.999268 0 0 14.75 18.53125 A 3.5000875 3.4997373 29.999268 0 0 19.53125 17.25 A 3.5000875 3.4997373 29.999268 0 0 18.25 12.46875 A 3.5000875 3.4997373 29.999268 0 0 16.582031 12.001953 z M 16.429688 14.001953 A 1.5000374 1.4998873 29.999268 0 1 17.25 14.201172 A 1.5000374 1.4998873 29.999268 0 1 17.798828 16.25 A 1.5000374 1.4998873 29.999268 0 1 15.75 16.798828 A 1.5000374 1.4998873 29.999268 0 1 15.201172 14.75 A 1.5000374 1.4998873 29.999268 0 1 16.429688 14.001953 z"/>
  <g transform="matrix(0.70710678,-0.70710678,0.70710678,0.70710678,-6.127417,16.207107)">
   <path style="fill:#71c1ff" d="m 21,14 5.99991,2.6e-4 L 25.500063,17 21.00013,16.999805 Z"/>
   <path style="fill:#71c1ff" d="M 16.5,5 A 10.5,10.5 0 0 0 6,15.5 10.5,10.5 0 0 0 16.5,26 10.5,10.5 0 0 0 27,15.5 10.5,10.5 0 0 0 26.878906,14 l -3.039062,0 A 7.4999999,7.4999999 0 0 1 24,15.5 7.4999999,7.4999999 0 0 1 16.5,23 7.4999999,7.4999999 0 0 1 9,15.5 7.4999999,7.4999999 0 0 1 16.5,8 a 7.4999999,7.4999999 0 0 1 5.990234,3 l 3.482422,0 A 10.5,10.5 0 0 0 16.5,5 Z"/>
  </g>
 </g>
 <path style="fill:#ffffff;opacity:0.2" d="M 16.5 1 C 8.467 1 2 7.467 2 15.5 C 2 15.668901 2.0197182 15.832529 2.0253906 16 C 2.2895 8.2024902 8.6359007 2 16.5 2 C 24.364099 2 30.7105 8.2024902 30.974609 16 C 30.980282 15.832529 31 15.668901 31 15.5 C 31 7.467 24.533 1 16.5 1 z"/>
</svg>
